X:37
T:Swallow Tail Jig
M:6/8
K:E Dorian
L:1/8
Q:1/4=88
F2 |: "Em" vGEE BEE | GEE BAG | "D" FDD ADD |
dcd AGF | "Em" GEE BEE | GEE (B2 c) | "D" dcd AGF |
"Em" GEE uE2 :||: uB | "Em" Bcd (e2 f) | (e2 f) edB | Bcd (e2 f) |
edB "D" (d2 B) | "Em" Bcd (e2 f) | (e2 f) edB | "D" dcd AGF | GEE E2 :|
W: Note timing weirdness at repeat.  Will have to figure this out.

% White Cockade & Soldier's Joy are from "Mellie" Dunham's Fiddlin' (sic) Dance Tunes
% chords from Fiddler's Fake Book.  Ellen added a slur and changed one note.

